X:1
T:Advent sentence
T:Isaiah 40:5
T:Advent sentence
C:Isaiah 40:5
%%score [ ( 1 2 ) ( 3 4 ) ]
L:1/8
Q:1/4=88
M:4/4
K:C
V:1 treble nm="Soprano (S.A.)" snm="S. (S.A.)"
V:2 treble 
V:3 bass nm="Bass (T.B.)" snm="B. (T.B.)"
V:4 bass 
V:1
!f!!<(! F2!<)! F2 | (_e6 d2 | ^c2) A2 B2 c2 | (^c4!>(! B4-!>)! | B) z z2 z4 | z8 | %6
w: |glo- *|* ry * *||||
w: And the|glo- *|ry * of the|Lord _|_||
!p! (C2!<(! D2) E2!<)! F2 |[M:5/4]!mp! A6- A z A2 |[M:4/4] A4 c4- | c6 G2 |!>(! _A8 |"^[" G4 F4 | %12
w: ||all flesh|_ shall|see||
w: shall _ be re-|vealed, _ and|all _|flesh shall|see|it to-|
 G6 G2-!>)! | !fermata!G8 |] %14
w: ||
w: geth- er.|_|
V:2
 F2 F2 | (c6 _B2) | A4 G2 A2 | (^A4 B4- | B) x7 | x8 | (C2 D2) E2 F2 |[M:5/4] E6- E x E2 | %8
[M:4/4] (F4 A4) | A4 F4 | _E8 | [_EF]4 D4 | [CE]6 [CE]2- | [CE]8 |] %14
V:3
!f!!<(! F,2!<)! F,2 | _B,8 | A,4 A,2 A,2 | (G,4!>(! ^F,4-!>)! | F,)!mp! z z2 z2 z2 | %5
w: |||||
w: |||||
!mp! z2 A,4 A,2 | A,4 A,4 |[M:5/4] ^C6- C z C2 |[M:4/4] =C8- | C2 A,4 B,2 |!>(! C8 | %11
w: be re-|vealed, re-||all|_ flesh shall||
w: |||||see|
 C4"^[" [_B,C]4 | C6 C2-!>)! | C8 |] %14
w: |||
w: |||
V:4
 F,2 F,2 | _G,8 | G,4 G,2 F,2 | (E,4 D,4- | D,) x D,2 B,,2 D,2 | F,8- | F,6 F,2 | %7
w: |||||||
w: ||||* shall be re-|vealed,|_ re-|
[M:5/4] E,6- E, x E,2 |[M:4/4] F,8 | F,4 G,4 | _A,8 | _A,4 A,4 | G,6 G,2- | !fermata!G,8 |] %14
w: |||||||
w: vealed, * and|all|flesh shall|||||

